!!!OTL: Sleep, Baby
!!!OTL@@CHN: 睡吧 小宝贝
!!!ARE: China
**kern
*clefG2
*M6/8
*k[b-]
*MM60
{4f
8c
8.a
16g
8f
=1
8.g
16f
16e
16d
4.c}
=2
{4f
8c
8.cc
16b-
8a
=3
8.b-
16a
16g
16f
4.g}
=4
{4a
8a
8.g
16f
8d
=5
4f
8g
4a
8g
=6
8.a
16cc
16b-
16a
2g}
=7
{4c
8d
4f
8g
=8
4a
8f
4g
8f
=9
8.c
16d
16g
16f
2f}
=10
{8g
8a
8b-
4a
8f
=11
8c
8f
8a
4dd
8cc
=12
4.cc
4.cc}
=13
{16a
16cc
8cc
8cc
8.f
16a
16g
16f
=14
4.f
4.f}
==
*-
